chrome/icons/card.svg

<svg height="16" viewBox="0 192 1024 640" width="16" xmlns="http://www.w3.org/2000/svg" xmlns:xlink="http://www.w3.org/1999/xlink">
  <path d="M898.5,192C915.167,192 931.083,195.417 946.25,202.25C961.417,209.083 974.75,218.25 986.25,229.75C997.75,241.25 1006.92,254.583 1013.75,269.75C1020.58,284.917 1024,300.833 1024,317.5L1024,706.5C1024,723.167 1020.58,739.083 1013.75,754.25C1006.92,769.417 997.75,782.75 986.25,794.25C974.75,805.75 961.417,814.917 946.25,821.75C931.083,828.583 915.167,832 898.5,832L125.5,832C108.833,832 92.9167,828.583 77.75,821.75C62.5833,814.917 49.25,805.75 37.75,794.25C26.25,782.75 17.0833,769.417 10.25,754.25C3.41667,739.083 0,723.167 0,706.5L0,317.5C0,300.833 3.41667,284.917 10.25,269.75C17.0833,254.583 26.25,241.25 37.75,229.75C49.25,218.25 62.5833,209.083 77.75,202.25C92.9167,195.417 108.833,192 125.5,192ZM128,256C119,256 110.667,257.667 103,261C95.3333,264.333 88.5833,268.917 82.75,274.75C76.9167,280.583 72.3333,287.333 69,295C65.6667,302.667 64,311 64,320L64,384L960,384L960,320C960,311.333 958.333,303.083 955,295.25C951.667,287.417 947.083,280.583 941.25,274.75C935.417,268.917 928.583,264.333 920.75,261C912.917,257.667 904.667,256 896,256ZM896,768C905,768 913.333,766.333 921,763C928.667,759.667 935.417,755.083 941.25,749.25C947.083,743.417 951.667,736.667 955,729C958.333,721.333 960,713 960,704L960,448L64,448L64,704C64,713 65.6667,721.417 69,729.25C72.3333,737.083 76.8333,743.833 82.5,749.5C88.1667,755.167 94.9167,759.667 102.75,763C110.583,766.333 119,768 128,768ZM864,640C872.667,640 880.167,643.167 886.5,649.5C892.833,655.833 896,663.333 896,672C896,680.667 892.833,688.167 886.5,694.5C880.167,700.833 872.667,704 864,704L736,704C727.333,704 719.833,700.833 713.5,694.5C707.167,688.167 704,680.667 704,672C704,663.333 707.167,655.833 713.5,649.5C719.833,643.167 727.333,640 736,640Z" fill="context-fill" fill-opacity="context-fill-opacity">
  </path>
</svg>

<svg xmlns="http://www.w3.org/2000/svg" width="16" height="16" viewBox="0 192 1024 640"><path fill="context-fill" fill-opacity="context-fill-opacity" d="M898.5 192q25 0 47.75 10.25t40 27.5c11.5 11.5 20.67 24.833 27.5 40S1024 300.833 1024 317.5v389c0 16.667-3.42 32.583-10.25 47.75s-16 28.5-27.5 40q-17.25 17.25-40 27.5T898.5 832h-773q-25 0-47.75-10.25t-40-27.5-27.5-40T0 706.5v-389q0-25 10.25-47.75t27.5-40 40-27.5T125.5 192ZM128 256q-13.5 0-25 5t-20.25 13.75T69 295t-5 25v64h896v-64q0-13-5-24.75t-13.75-20.5-20.5-13.75-24.75-5Zm768 512q13.5 0 25-5t20.25-13.75T955 729t5-25V448H64v256q0 13.5 5 25.25t13.5 20.25 20.25 13.5 25.25 5Zm-32-128q13 0 22.5 9.5T896 672t-9.5 22.5T864 704H736q-13 0-22.5-9.5T704 672t9.5-22.5T736 640Z"/></svg>
